src/components/Icon/assets/volume-down.svg

<svg width="24" height="24" viewBox="0 0 24 24" fill="none" xmlns="http://www.w3.org/2000/svg">
<g id="volume-down">
<path id="Combined Shape" fill-rule="evenodd" clip-rule="evenodd" d="M13.0002 2.00012L12.8687 2.00879C12.652 2.03752 12.4494 2.13673 12.2931 2.29302L7.58498 7.00002L3.00018 7.00012C2.4479 7.00012 2.00018 7.44784 2.00018 8.00012V16.0001L2.00691 16.1167C2.06468 16.6141 2.48735 17.0001 3.00018 17.0001L7.58598 17L12.2931 21.7072C12.4806 21.8948 12.735 22.0001 13.0002 22.0001H14.0002C14.5525 22.0001 15.0002 21.5524 15.0002 21.0001V3.00012C15.0002 2.44784 14.5525 2.00012 14.0002 2.00012H13.0002ZM13 4.414V19.585L8.70731 15.293L8.60823 15.2062C8.43468 15.0733 8.22121 15.0001 8.0002 15.0001L4 15V9L8.0002 9.0001C8.26542 9.0001 8.51977 8.89474 8.70731 8.70721L13 4.414ZM19.4171 16.0622C21.5844 13.7068 21.5258 10.0395 19.2414 7.75513L17.8272 9.16934L17.9783 9.32885C19.3889 10.9007 19.3385 13.3198 17.8272 14.8311L19.2414 16.2453L19.4171 16.0622Z" fill="#242428"/>
</g>
</svg>

<svg xmlns="http://www.w3.org/2000/svg" width="24" height="24" fill="none" viewBox="0 0 24 24">
    <path fill="#65676A" fill-rule="evenodd" d="M13 2l-.131.009c-.217.029-.42.128-.576.284L7.585 7H3c-.552 0-1 .448-1 1v8l.007.117c.058.497.48.883.993.883h4.586l4.707 4.707c.188.188.442.293.707.293h1c.553 0 1-.448 1-1V3c0-.552-.447-1-1-1h-1zm0 2.414v15.171l-4.293-4.292-.099-.087C8.435 15.073 8.221 15 8 15H4V9h4c.265 0 .52-.105.707-.293L13 4.414zm6.417 11.648c2.167-2.355 2.109-6.023-.176-8.307L17.827 9.17l.151.16c1.41 1.572 1.36 3.99-.15 5.502l1.413 1.414.176-.183z" clip-rule="evenodd"/>
</svg>
